X:1
T:Katharine Jaffray
M:2/4
L:1/8
K:F
 G| AG Ac| d/2d/2 dc c| FF GE| C3 G| A G/2G/2 A/2A/2 c| dd c c/2c/2|\
 F/2F/2 FG E| C3 G| AG Ac| dd cc| F/2F/2 FG E| C3 G| AA FF| G/2G/2 G/2G/2 C C/2C/2|\
 G/2G/2 GF E| F3||
